X:11
T:Y Glaniad - The Landing
M:3/4
L:1/8
Q:160
C:John Tose
R:Waltz
K:G
FE ||: DE FG A2 | DE FG A2 | GA Bc B2 | G4 F2 | DE FG A2 | DE FG A2 | G2
F2 E2 |1 _F2 E2 D2 :||2 D4 F2 ||: F2 G2 A2 | A2 B2 ^c2 | d2 ^c2 B2 | A
4 G2 | DE FG A2 | DE FG A2 | G2 F2 E2 |1 _F2 E2 D2 :||2 D4 ||
